!!!OTL: 62. Männer und Buben (1813).
!!!COM: Volksweise
!!!ODT: 1813
!!!ARE: Europa, Mitteleuropa, Deutschland
!!!SCT: B0062
!!!TXL: @@DE
!!!YEM: Copyright 1995, estate of Helmut Schaffrath.
**kern	**text
*ICvox	*
*Ivox	*
*M4/4	*
*met(c)	*
*clefG2	*
*k[f#]	*
*G:	*
!LO:TX:a:t=Marſchmäßig.	!
{4d	Das
=1	=1
4g	Volk
4d	ſteht
4B	auf,
4d	der
=2	=2
4g	Sturm
4a	bricht
4b	los:
8r}	.
{8b	wer
=3	=3
4b	legt
8.a	noch
16b/	die
4cc	Hän-
4b	-de
=4	=4
8bL	feig
8aJ	.
8a	in
8a	den
4a	Schoß?
4r}	.
=5	=5
{4a	Pfui!
(>12.a	ü-
24a	-ber
24a)	dich
4dd	Bu-
4a	-ben
=6	=6
4f#	hin-
8.a	-ter
16a	dem
4f#	O-
4d}	-fen,
=7	=7
{4a	un-
8.a	-ter
16a	den
4dd	Schranʒen
8.a	.
16a	und
=8	=8
4f#	un-
8.a	-ter
16a	den
8ddL	Ʒo-
8ccJ	.
8bL	-fen!
8a}J	.
=9||	=9||
!LO:TX:a:t=Refr.	!
{4g	Biſt
8.g	doch
16f#	ein
4a	ehr-
8.a	-los
16a	er-
=10	=10
4b	-bärm-
8.dd	-li-
16b	-cher
4a;	Wicht,
8.g	ein
16a	er-
=11	=11
4b	-bärm-
8dd	-li-
8b	-cher
4a;}	Wicht!
{8gL	Ein
8bJ	.
=12	=12
4.dd	deut-
8cc	-ſches
4b	Mäd-
4b	-chen
=13	=13
8aL	küßt
8gJ	.
8aL	dich
8bJ	.
4g}	nicht,
{8gL	ein
8bJ	.
=14	=14
4.dd	deut-
8cc	-ſches
4b	Lied
4b	er-
=15	=15
8aL	-freut
8gJ	.
8aL	dich
8bJ	.
4g}	nicht,
{4dd	ein
=16	=16
4.gg	deutſcher
8dd	.
4b	Wein
4g	er-
=17	=17
4.dd	-quickt
8dd	dich
4dd;}	nicht!
{8.b	Stoßt
16b	mit
=18	=18
4b	an,
8.b	Mann
16b	für
4b	Mann,
8.b	wer
16b	den
=19	=19
8.b	Flamberg
16b	.
!LO:TX:a:t=P:encoded higher voice:problem	!
8.dd	ſchwingen
16dd	.
[2dd	kann!
=20	=20
2dd]	.
4r}	.
==	==
!!!AGN: Kriegs -, Sieges -, Soldaten - Lied
!!!GTL: Kriegs- und Siegeslieder
!!!ONB: ESAC (Essen Associative Code) Database: BOEHME
!!!AMT: simple quadruple
!!!AIN: vox
!!!EED: Helmut Schaffrath
!!!EEV: 1.0
!!!RDF**kern: > = above
!!Alte Volksweiſe: "Lille, du allerſchönſte Stadt".
!!@@COMMENT:"Gedicht von Theodor Körner 17. Auguſt 1S13 nach Ablauf des Wafſenſtillſtandes an dieſem
!!Tage. - Die Melodie iſt eine Umbildung der alten Volksweiſe: "Lille, du allerſchönſte Stadt"
!!(ſ. Liederhort JJ, Nr. 323 und Fahnenlieder aus alter Ʒeit Nr. 24)."
!!@@END:
!!Text: Theodor Körner
!!!URL-scan: https://archive.org/details/BoehmeVtLieder1895/page/n75/mode/2up
!!!ENC: Anna Maria Matuszewska
!!!EEV: 2024/14/06
*-	*-
